Costumes/Q-pixel.svg

<?xml version="1.0" encoding="UTF-8" standalone="no"?>
<svg
   version="1.1"
   width="25.625"
   height="41"
   id="svg4"
   sodipodi:docname="Q-pixel.svg"
   xmlns:inkscape="http://www.inkscape.org/namespaces/inkscape"
   xmlns:sodipodi="http://sodipodi.sourceforge.net/DTD/sodipodi-0.dtd"
   xmlns="http://www.w3.org/2000/svg"
   xmlns:svg="http://www.w3.org/2000/svg">
  <defs
     id="defs8" />
  <sodipodi:namedview
     id="namedview6"
     pagecolor="#ffffff"
     bordercolor="#000000"
     borderopacity="0.25"
     inkscape:showpageshadow="2"
     inkscape:pageopacity="0.0"
     inkscape:pagecheckerboard="0"
     inkscape:deskcolor="#d1d1d1" />
  <!-- Exported by Scratch - http://scratch.mit.edu/ -->
  <g
     id="ID0.7605372378602624"
     transform="translate(0,-0.8)">
    <path
       id="ID0.746331756003201"
       fill="#39b54a"
       d="m 0,0 v 147 h 42 v 21 h 21 v -21 h 42 V 0 Z M 84,126 H 63 V 105 H 42 v 21 H 21 V 21 h 63 z"
       transform="matrix(0.24404761,0,0,0.24404761,0,0.8)" />
  </g>
</svg>

<svg version="1.1" width="26" height="42" xmlns="http://www.w3.org/2000/svg" xmlns:xlink="http://www.w3.org/1999/xlink">
  <!-- Exported by Scratch - http://scratch.mit.edu/ -->
  <g id="ID0.7605372378602624">
    <path id="ID0.746331756003201" fill="#39B54A" d="M 0 0 L 0 147 L 42 147 L 42 168 L 63 168 L 63 147 L 105 147 L 105 0 L 0 0 Z M 84 126 L 63 126 L 63 105 L 42 105 L 42 126 L 21 126 L 21 21 L 84 21 L 84 126 Z " transform="matrix(0.244047611951828, 0, 0, 0.244047611951828, 0, 0.8)"/>
  </g>
</svg>
